X: 131
M:C|
L:1/8
K:F
(ucB)|Acfa gbeg|fafc AcAF|DFdc BAGF|E2G2G2(cB)|
|:(ucA)|BAGF EGcB|Acfc afcA|BAGF EdcB|Acfc afcA|
dgba gfed|cfag fedc|dBfd cBAG|F2F2F2:|


